!!!!SEGMENT:04Oimatsu_c.krn
!!!OTL: 老松
!!!OPR:Eiga Banso Kyokusyu,jidai-geki,zenpen
!!!YOY:1929
!!!ONB:Kengeki
**kern
*clefG2
*C:
*M2/4
=1
!LO:TX:a:B:t=Allegro
4B
4aa
=2
4bb
4ccc
=3
8bbL
8bb
8B
8bbJ
=4
8bbL
8bbJ
4r
=5
4bb
4gg
=6
4gg
4ff#
=7
4ee
4ff#
=8
4cc
4r
=9
8ff#L
8eeJ
4cc
=10
8ff#L
8eeJ
4cc
=11
8f#L
8ee
8ee
8eeJ
=12
4ff#
4r
=13
4ff#
4gg#X
=14
4aa
4gg#X
=15
4ff#
8gg#XL
8ff#J
=16
4dd
4cc#X
=17
4b
8cc#XL
8bJ
=18
4b
4ee
=19
8f#L
8gg
8gg
8ggJ
=20
4ff#
4r
=21
8f#L
8gg
8gg
8ff#J
=22
8f#L
8gg
8gg
8ff#J
=23
8f#L
8ee
8ff#
8eeJ
=24
8ff#L
8ee
8cc
8ccJ
=25
8r
8eeL
8ff#
8eeJ
=26
8ff#L
8eeJ
4cc
=27
8eeL
8cc
8.b
16gJk
=28
4f#
4g
=29
4r
4f#
=30
4r
4e
=31
4r
4f#
=32
4r
4c
=33
4r
4B
=34
4r
4e
=35
4r
4f#
=36
4r
8ccL
8ccJ
=37
8ccL
8b
8b
8gJ
=38
4f#
8ddL
8ddJ
=39
4ee
8ddL
8ddJ
=40
4ee
8ccL
8ccJ
=41
4b
8fnL
8fJ
=42
4e
8aL
8aJ
=43
8aL
8a
8a
8aJ
=44
4b
8aL
8aJ
=45
4b
8aL
8aJ
=46
4b
8ffnL
8eeJ
=47
8ddL
8ddJ
8eeL
8ddJ
=48
4b
4a
=49
4r
8bL
8bJ
=50
4b
4b
=51
4b
4b
=52
4b
4r
=
*-
!!!ENC: Yukiko Yoden
!!!END: 2023/06/11
